X:0238
M:6/8
L:1/8
Q:3/8=86
K:D
a|agf f2a |gfe e2g|fed edc|ddd d2:|
a|agf f2a |gfe e2g|fed edc|ddd d2:|

